X: 30052
T: Off To The Hunt
R: jig
M: 6/8
K: Adorian
|:A2A AB/c/d|ege dBA|~G3 BGB|dBG BAG|
A2A AB/c/d|ede g2g|age dBd|1 ecA A2G:|2 ecA A3||
|:~a3 ~A3|~a3 ~A3|~g3 ~G3|B/c/dB GAB|
cGc d2d|~e3 g2g|age dBd|1 ecA A3:|2 ecA A2G||

